icons/quote-16.svg

<svg xmlns="http://www.w3.org/2000/svg" width="16" height="16" viewBox="0 0 16 16">
  <defs/>
  <path d="M1.75,2.5 L12.25,2.5 C12.664,2.5 13,2.836 13,3.25 C13,3.664 12.664,4 12.25,4 L1.75,4 C1.336,4 1,3.664 1,3.25 C1,2.836 1.336,2.5 1.75,2.5 Z M5.75,7.5 L14.25,7.5 C14.664,7.5 15,7.836 15,8.25 C15,8.664 14.664,9 14.25,9 L5.75,9 C5.336,9 5,8.664 5,8.25 C5,7.836 5.336,7.5 5.75,7.5 Z M5.75,12.5 L14.25,12.5 C14.664,12.5 15,12.836 15,13.25 C15,13.664 14.664,14 14.25,14 L5.75,14 C5.336,14 5,13.664 5,13.25 C5,12.836 5.336,12.5 5.75,12.5 Z M2.5,7.75 L2.5,13.75 C2.5,14.164 2.164,14.5 1.75,14.5 C1.336,14.5 1,14.164 1,13.75 L1,7.75 C1,7.336 1.336,7 1.75,7 C2.164,7 2.5,7.336 2.5,7.75 Z"/>
</svg>

<svg xmlns="http://www.w3.org/2000/svg" width="16" height="16" viewBox="0 0 16 16"><path d="M1.75 2.5h10.5a.75.75 0 010 1.5H1.75a.75.75 0 010-1.5zm4 5h8.5a.75.75 0 010 1.5h-8.5a.75.75 0 010-1.5zm0 5h8.5a.75.75 0 010 1.5h-8.5a.75.75 0 010-1.5zM2.5 7.75v6a.75.75 0 01-1.5 0v-6a.75.75 0 011.5 0z"/></svg>
